symbols/web/donut_small/materialsymbolsoutlined/donut_small_wght600grad200fill1_24px.svg

<svg xmlns="http://www.w3.org/2000/svg" height="24" width="24"><path d="M14.65 11q-.2-.575-.6-1-.4-.425-.975-.65v-8.3q3.975.375 6.75 3.175T22.975 11Zm-3.7 11.95q-4.25-.4-7.087-3.512-2.838-3.113-2.838-7.413 0-4.275 2.838-7.413Q6.7 1.475 10.95 1.05v8.3q-.825.3-1.325 1.037-.5.738-.5 1.638 0 .9.488 1.637.487.738 1.337 1.038Zm2.125 0V14.7q.55-.225.963-.638.412-.412.612-.962h8.325q-.375 3.95-3.163 6.712-2.787 2.763-6.737 3.138Z"/></svg>

<svg xmlns="http://www.w3.org/2000/svg" height="24" width="24"><path d="M14.65 11Q14.45 10.425 14.05 10Q13.65 9.575 13.075 9.35V1.05Q17.05 1.425 19.825 4.225Q22.6 7.025 22.975 11ZM10.95 22.95Q6.7 22.55 3.863 19.438Q1.025 16.325 1.025 12.025Q1.025 7.75 3.863 4.612Q6.7 1.475 10.95 1.05V9.35Q10.125 9.65 9.625 10.387Q9.125 11.125 9.125 12.025Q9.125 12.925 9.613 13.662Q10.1 14.4 10.95 14.7ZM13.075 22.95V14.7Q13.625 14.475 14.038 14.062Q14.45 13.65 14.65 13.1H22.975Q22.6 17.05 19.812 19.812Q17.025 22.575 13.075 22.95Z"/></svg>
